X:1
T:Title
%%score 1 2
L:1/8
Q:1/4=75
M:6/8
K:G
V:1 treble nm="Strings 1, Treble"
V:2 bass nm="Strings 1, Bass"
V:1
 [DB][DB][DB] [DB][DA][DG] | [EA][EG][CE] .[B,D]3 | [Gd][GB][Ge] [Gd][DB][DG] | %3
w: 1.~See~ the~ storm~ rag ing~ in~|fu ry~ to day,~|Out~ on~ life's~ o cean~ still~|
 [Gd][Fc][GB] .[FA]3 | [DB][DB][DB] [DB][DA][DG] | [EA][EG][CE] [EG]2 [CE] | %6
w: drift ing~ a way;~|Loved~ ones~ are~ tossed~ on~ the~|bil lows,~ we~ know,~ Then,~|
 [B,D]>[B,D][B,D] [B,D][DG][DB] | [DA][DG][DF] .[DG]3 | [Gd]>[GB][Ge] [Gd]<[GB] z | %9
w: rush~ to~ the~ res cue~ and~|nev er~ say~ no.~||
 [GB]>G[Gc] [GB]<[DG] z | [EG][EG][EG] [EA][EG][CE] | [B,D][DG][GB] [FA]3 | %12
w: |||
 [Gd]>[GB][Ge] [Gd]<[GB] z | [GB]>G[Gc] [GB]<[DG] z | [CE][DF][EG] D[DG][DB] | %15
w: |||
 [DA][DG][DF] [DG]3 |] %16
w: |
V:2
 [G,,G,][G,,G,][G,,G,] [G,,G,][A,,F,][B,,G,] | [C,G,][C,G,][C,G,] .[G,,G,]3 | %2
 [G,B,][G,D][G,C] [G,B,]G,[G,B,] | [B,D][A,D][G,D] .[D,D]3 | %4
 [G,,G,][G,,G,][G,,G,] [G,,G,][A,,F,][B,,G,] | [C,G,][C,G,][C,G,] [C,G,]2 [C,G,] | %6
 [D,G,]>[D,G,][D,G,] [D,G,][D,B,][D,D] | [D,C][D,B,][D,A,] .[G,,G,B,]3 | %8
 [G,B,]>[G,D][G,C] [G,B,]<[G,D] z | [G,D]>[G,B,][G,E] [G,D]<[G,B,] z | %10
 [C,C][C,C][C,C] [C,G,][C,G,][C,G,] | [G,,G,][G,,B,][G,,D] [D,D]3 | %12
 [G,B,]>[G,D][G,C] [G,B,]<[G,D] z | [G,D]>[G,B,][G,E] [G,D]<[G,B,] z | %14
 [C,G,][C,G,][C,G,] [D,B,][D,B,][D,D] | [D,C][D,B,][D,A,] [G,,G,B,]3 |] %16

